**kern	**kern	**dynam
*part1	*part1	*part1
*staff2	*staff1	*
*I"Piano	*	*
*clefF4	*clefG2	*
*k[f#c#]	*k[f#c#]	*
=1	=1	=1
!	!LO:TX:b:i:t=dim.	!
2G#X 2d 2fn	12bbL	.
.	12ffn	.
.	12ddJ	.
.	12bL	.
.	12fn	.
.	12dJ	.
=	=	=
2GG#X 2D 2Fn	12BL	.
.	12d	.
.	12fnJ	.
.	12bL	.
.	12dd	.
.	12ffnJ	.
=	=	=
!	!LO:TX:b:t=rit.	!
2G#X 2d 2fn	12bbL	.
.	12ffn	.
.	12ddJ	.
.	12bL	.
.	12dd	.
.	12ffJ	.
=	=	=
[2G#X [2d [2fn	12bbL	pp
.	12ffn	.
.	12ddJ	.
.	12bL	.
.	12dd	.
.	12ffJ	.
=	=	=
8G#] 8d] 8f]	8bb)	.
8r	8r	.
!	!LO:TX:a:i:t=colla -           -voce.-     -      -      -      -	!
4r	4r	.
=	=	=
4A'~	4e'~ 4gn 4a 4dd	p
4r	4r	.
=	=	=
!	!LO:TX:b:i:t=cresc.	!
4AA'~ 4A	4e'~ 4g 4a 4cc#	.
4r	4r	.
=	=	=
*-	*-	*-
!!!system-decoration: {(s1,s2)}
